X:1
T:Ouvre ton coeur
T:Ouvre ton coeur
T:Georges Bizet
T:Louis Delâ  tre
C:Georges Bizet
%%score 1 { ( 2 4 ) | 3 }
L:1/8
M:3/4
K:Bb
V:1 treble nm="Voix"
V:2 treble nm="Piano"
V:4 treble 
V:3 bass 
V:1
 z6 | z6 | z6 | z6 | z6 | z6 | z6 |!mf! G2({de)} (d>c d2-) | d6 | cd e2 ce | (d/c/B/A/) G4- | G6- | %12
w: |||||||La mar- gue- rite||a fer- mé sa co-|rol- * * * le,||
 G4 z2 | (AB)cF(dB) | (AB) cF d2 | (c/B/A/B/) G2 ^F2 | G6- | G6- | G4 z2 | (G2{e} d>c d2-) | d6 | %21
w: |L'ombre * a fer- mé *|les * yeux du jour,|les * * * yeux du|jour.|||Bel- * * le,||
 cd e2 ce | (d/c/B/A/) G4- | G6- | G4 z2 | (AB)cFdB | AB cF d2 | (c/B/A/B/ G2 ^F2) | G6- | G6- | %30
w: me tien- dras tu pa-|ro- * * * le?|||La * mar- gue- ri- te|a fer- mé sa co-|rol- * * * * *|le,||
 G4 z2 |!p! =B2 B2 B2 |{A} d6 | G2 G2 G2 |{A} D4 z2 | =B,2 AG G2- | G2 z2 z2 | =B,2 AG G2- | %38
w: |Ou- vre ton|coeur|à mon a-|mour|ou- vre ton coeur||à mon a- mour,|
 G2 z2 z2 | (=EDCD E^F) | (GA) (=Bc) d z |!f! =e6- | e2 !^!d2 !^!D2 |({D=B)A} G6- | G4 z2 | z6 | %46
w: |ou- * * * * *|vre * ton * coeur|a|* mon a-|mour.|||
 z6 | z6 | z6 | z6 | z6 | z6 | z6 |!mf! G2 d>c d2- | d6 | cd e2 ce | (d/c/B/A/) G4- | G6- | G4 z2 | %59
w: |||||||Ou- vre ton coeur,||ô jeune ange, a ma|flam- * * * me,|||
 (AB)cFdB | (AB) (cF) d2 | (c/B/A/B/) G2 ^F2 | G6- | G6- | G4 z2 | (G2{de} (d>c d2-)) | (d6 | %67
w: Qu'en * rê- ve char- me|ton * som- * meil,|Ou- * * * vre ton|cceur.|||Je * * veux||
 c)d e2 ce | (d/c/B/A/) G4- | G6- | G4 z2 | (AB)cFdB | AB cF (d2 | c/B/A/B/ G2 ^F2) | G6- | G6- | %76
w: * re- pren- dre mon|â- * * * me,|||Ou- * vre ton coeur, ô|jeune ange, à ma flam-||me.||
 G2 z2 z2 |!p! =B2 B2 B2 |{A} (d6 | G2 G2 G2) |{A} D6 | =B,2 AG G2- | G2 z2 z2 | =B,2 AG G2- | %84
w: |Comme u- ne|fleur|s'ouvre au so-|leil|Ou- vre ton coeur,||ou- vre ton coeur,|
 G2 z2 z2 | (=EDCDE^F) | (GA) (=Bc) d z |!f! =e6- | e2 !^!d2 !^!D2 |({D=B)A} G6- | G4 z2 | z6 | %92
w: |Comme * * * * *|u- * ne * fleur|s'ouvre|* au so|leil!|||
 z6 | z6 | z6 | z6 | z6 |] %97
w: |||||
V:2
!pp! DD/D/ DD DD | [CD][CD]/[CD]/ [CD][CD] [CD][CD] | [B,D][B,D]/[B,D]/ [B,D][B,D] [B,D][B,D] | %3
w: |||
 [A,D][A,D]/[A,D]/ [A,D][A,D] [A,D][A,D] | [G,D][G,D]/[G,D]/ [G,D][G,D] [G,D][G,D] | %5
w: ||
!sfz!{^C} [G,D][G,D]/[G,D]/ [G,D][G,D] [G,D][G,D] | %6
w: |
!sfz!{^C} [G,D][G,D]/[G,D]/ [G,D][G,D] [G,D][G,D] |!p! [G,D][G,D]/[G,D]/ [G,D][G,D] [G,D][G,D] | %8
w: ||
 [G,D][G,D]/[G,D]/ [G,D][G,D] [G,D][G,D] | [A,E][A,E]/[A,E]/ [A,E][A,E] [A,E][A,E] | %10
w: ||
 [G,D][G,D]/[G,D]/ [G,D][G,D] [G,D][G,D] |!sfz!{^C} [G,D][G,D]/[G,D]/ [G,D][G,D] [G,D][G,D] | %12
w: ||
!sfz!{^C} [G,D][G,D]/[G,D]/ [G,D][G,D] [G,D][G,D] | %13
w: |
!p! [A,E][A,EF]/[A,EF]/ [A,EF][A,EF] [B,DF][B,DF] | %14
w: |
 [A,EF][A,EF]/[A,EF]/ [A,EF][A,EF] [B,DF][B,DF] | %15
w: |
 [G,A,E][G,A,E]/[G,A,E]/ [G,B,D][G,B,D] [A,CD][A,CD] | [G,B,D][G,D]/[G,D]/ [G,D][G,D] [G,D][G,D] | %17
w: ||
!sfz!{^C} [G,D][G,D]/[G,D]/ [G,D][G,D] [G,D][G,D] | %18
w: |
!sfz!{^C} [G,D][G,D]/[G,D]/ [G,D][G,D] [G,D][G,D] |!p! [G,D][G,D]/[G,D]/ [G,D][G,D] [G,D][G,D] | %20
w: ||
 [G,D][G,D]/[G,D]/ [G,D][G,D] [G,D][G,D] | [A,E][A,E]/[A,E]/ [A,E][A,E] [A,E][A,E] | %22
w: ||
 [G,D][G,D]/[G,D]/ [G,D][G,D] [G,D][G,D] |!sfz!{^C} [G,D][G,D]/[G,D]/ [G,D][G,D] [G,D][G,D] | %24
w: ||
!sfz!{^C} [G,D][G,D]/[G,D]/ [G,D][G,D] [G,D][G,D] | %25
w: |
 [A,EF][A,EF]/[A,EF]/ [A,EF][A,EF] [B,DF][B,DF] | [A,EF][A,EF]/[A,EF]/ [A,EF][A,EF] [B,DF][B,DF] | %27
w: ||
 [G,A,E][G,A,E]/[G,A,E]/ [G,B,D][G,B,D] [A,CD][A,CD] | [G,B,D][G,D]/[G,D]/ [G,D][G,D] [G,D][G,D] | %29
w: ||
!sfz!{^C} [G,D][G,D]/[G,D]/ [G,D][G,D] [G,D][G,D] | %30
w: |
!sfz!{^C} [G,D][G,D]/[G,D]/ [G,D][G,D] [G,D][G,D] | %31
w: |
 [G,=B,D][G,B,D]/[G,B,D]/ [G,B,D][G,B,D] [G,B,D][G,B,D] | %32
w: |
 [^F,A,D][F,A,D]/[F,A,D]/ [F,A,D][F,A,D] [F,A,D][F,A,D] | %33
w: |
 [=E,G,D][E,G,D]/[E,G,D]/ [E,G,D][E,G,D] [E,G,D][E,G,D] | %34
w: |
 [^F,A,D][F,A,D]/[F,A,D]/ [F,A,D][F,A,D] [F,A,D][F,A,D] | D6 | (=E6 | D4) G,2 | =E4 E z | %39
w: |||||
!<(! =E/(=e/D/d/ C/c/D/d/ E/e/^F/^f/!<)! | G/g/A/a/ =B/=b/c/c'/{d} d' z) | %41
w: ||
!ff! [^G=Bd=e][GBde]/[GBde]/ [GBde][GBde] [GBde][GBde] | [Ac^f] z z2 z2 | %43
w: ||
 [Gdg][Gdg]/[Gdg]/ [Gdg][Gdg] [Gdg][Gdg] | [Gd=fg][Gdfg]/[Gdfg]/ [Gdfg][Gdfg] [Gdfg][Gdfg] | %45
w: * * * diminuendo * * *||
 [Gceg][Gceg]/[Gceg]/ [Gceg][Gceg] [Gdfg][Gdfg] | %46
w: |
 [Gceg][Gceg]/[Gceg]/ [Gceg][_Bf_a_b] [Bfab][Bfab] | %47
w: |
 [Begb][Begb]/[Begb]/ [Begb][Begb] [Bf_ab][Bfab] | [Begb][Begb]/[Begb]/ [Begb]!f!.D .=E.^F | %49
w: ||
 .G.A .B.c .d!ff!!wedge![dd'] | !wedge![gbd'g'][G,D]/!pp![G,D]/ [G,D][G,D] [G,D][G,D] | %51
w: ||
!sfz!{^C} [G,D][G,D]/[G,D]/ [G,D][G,D] [G,D][G,D] | %52
w: |
!sfz!{^C} [G,D][G,D]/[G,D]/ [G,D][G,D] [G,D][G,D] | z2 z2 z!p! (D | G)A Bc dg |({ef)} (ed c)B Ac | %56
w: ||||
 B/A/G/^F/ G3!pp! d | (b/a/g/^f/ g3)!p! (D | GA Bc de | f6-) | f6 | (e/d/c/d/ Bc/d/ DA | %62
w: ||||||
 G4!pp! .G)d | (b/a/g/^f/ g4- | g2) z2 z2 | z2 z2 z!p! (D | G)A Bc dg |({ef)} (ed c)B Ac | %68
w: ||||||
 B/A/G/^F/ G3!pp! d | (b/a/g/^f/ g3)!p! (D | GA Bc de | f6-) | f6 | (e/d/c/d/ Bc/d/ DA | %74
w: ||||||
 G4 .G)!pp!d | (b/a/g/^f/ g4- | g)!p![G,D]/[G,D]/ [G,D][G,D] [G,D][G,D] | %77
w: |||
 [G,=B,D][G,B,D]/[G,B,D]/ [G,B,D][G,B,D] [G,B,D][G,B,D] | %78
w: |
 [^F,A,D][F,A,D]/[F,A,D]/ [F,A,D][F,A,D] [F,A,D][F,A,D] | %79
w: |
 [=E,G,D][E,G,D]/[E,G,D]/ [E,G,D][E,G,D] [E,G,D][E,G,D] | %80
w: |
 [^F,A,D][F,A,D]/[F,A,D]/ [F,A,D][F,A,D] [F,A,D][F,A,D] | (D6 | =E6) | D4 G,2 | (=E4 E) z | %85
w: |||||
 =E/(=e/D/d/ C/c/D/d/ E/e/^F/^f/ | G/g/A/a/ =B/=b/c/c'/{d} d' z) | %87
w: ||
!ff! [^G=Bd=e][GBde]/[GBde]/ [GBde][GBde] [GBde][GBde] | [Ac^f] z z2 z2 | %89
w: ||
!f! [Gdg][Gdg]/[Gdg]/ [Gdg][Gdg] [Gdg][Gdg] | [Gdfg][Gdfg][Gdfg][Gdfg][Gdfg][Gdfg] | %91
w: * * diminuendo * * * *||
 [Gceg][Gceg]/[Gceg]/ [Gceg][Gceg] [Gdfg][Gdfg] | [Gceg][Gceg]/[Gceg]/ [Gceg][Bf_ab] [Bfab][Bfab] | %93
w: ||
 [Begb][Begb]/[Begb]/ [Begb][Begb] [Bf_ab][Bfab] | [Begb][Begb]/[Begb]/ [Begb].D .=E.^F | %95
w: ||
!<(! .G!<)!.A .B.c .d!wedge![dd'] |{/d'} [gg'] z z2 z2 |] %97
w: ||
V:3
 z6 | z6 | z6 | z6 | [G,,D,][G,,D,]/[G,,D,]/ [G,,D,][G,,D,] [G,,D,][G,,D,] | %5
{^C,} [G,,D,][G,,D,]/[G,,D,]/ [G,,D,][G,,D,] [G,,D,][G,,D,] | %6
{^C,} [G,,D,][G,,D,]/[G,,D,]/ [G,,D,][G,,D,] [G,,D,][G,,D,] | %7
 [G,,D,][G,,D,]/[G,,D,]/ [G,,D,][G,,D,] [G,,D,][G,,D,] | %8
 [G,,D,][G,,D,]/[G,,D,]/ [G,,D,][G,,D,] [G,,D,][G,,D,] | %9
 [C,G,][C,G,]/[C,G,]/ [C,G,][C,G,] [C,G,]G, | %10
 [G,,D,][G,,D,]/[G,,D,]/ [G,,D,][G,,D,] [G,,D,][G,,D,] | %11
{^C,} [G,,D,][G,,D,]/[G,,D,]/ [G,,D,][G,,D,] [G,,D,][G,,D,] | %12
{^C,} [G,,D,][G,,D,]/[G,,D,]/ [G,,D,][G,,D,] [G,,D,][G,,D,] | %13
{F,,,} F,,F,,/F,,/ F,,F,, [B,,,B,,]B,, |{F,,,} F,,F,,/F,,/ F,,F,, [B,,,B,,]B,, | %15
{C,,} C,C,/C,/ D,D, D,,D,, | G,,[G,,D,]/[G,,D,]/ [G,,D,][G,,D,] [G,,D,][G,,D,] | %17
{^C,} [G,,D,][G,,D,]/[G,,D,]/ [G,,D,][G,,D,] [G,,D,][G,,D,] | %18
{^C,} [G,,D,][G,,D,]/[G,,D,]/ [G,,D,][G,,D,] [G,,D,][G,,D,] | %19
 [G,,D,][G,,D,]/[G,,D,]/ [G,,D,][G,,D,] [G,,D,][G,,D,] | %20
 [G,,D,][G,,D,]/[G,,D,]/ [G,,D,][G,,D,] [G,,D,][G,,D,] | %21
 [C,G,][C,G,]/[C,G,]/ [C,G,][C,G,] [C,G,][C,G,] | %22
 [G,,D,][G,,D,]/[G,,D,]/ [G,,D,][G,,D,] [G,,D,][G,,D,] | %23
{^C,} [G,,D,][G,,D,]/[G,,D,]/ [G,,D,][G,,D,] [G,,D,][G,,D,] | %24
{^C,} [G,,D,][G,,D,]/[G,,D,]/ [G,,D,][G,,D,] [G,,D,][G,,D,] | %25
!p!{F,,,} F,,F,,/F,,/ F,,F,, [B,,,B,,]B,, |{F,,,} F,,F,,/F,,/ F,,F,, [B,,,B,,]B,, | %27
{C,,} C,C,/C,/ D,D, D,,D,, | G,,[G,,D,]/[G,,D,]/ [G,,D,][G,,D,] [G,,D,][G,,D,] | %29
{^C,} [G,,D,][G,,D,]/[G,,D,]/ [G,,D,][G,,D,] [G,,D,][G,,D,] | %30
{^C,} [G,,D,][G,,D,]/[G,,D,]/ [G,,D,][G,,D,] [G,,D,][G,,D,] | %31
!pp! [G,,D,][G,,D,]/[G,,D,]/ [G,,D,][G,,D,] [G,,D,][G,,D,] | %32
 [G,,D,][G,,D,]/[G,,D,]/ [G,,D,][G,,D,] [G,,D,][G,,D,] | %33
 [G,,D,][G,,D,]/[G,,D,]/ [G,,D,][G,,D,] [G,,D,][G,,D,] | %34
 [G,,D,][G,,D,]/[G,,D,]/ [G,,D,][G,,D,] [G,,D,][G,,D,] | [G,,D,] z z2 z2 |{C,,} (C,2 A,G,) (G,2 | %37
 G,,) z z2 z2 |{C,,} (C,2 A,G,) G, z | [C,,C,][C,G,A,] [C,G,A,][C,G,A,] [C,G,A,][C,G,A,] | %40
 [D,G,=B,][D,G,B,] [D,G,B,][D,G,B,] [D,G,B,] z | %41
 [D,,D,][D,,D,]/[D,,D,]/ [D,,D,][D,,D,] [D,,D,][D,,D,] | [D,,D,] z z2 z2 |!f! [G,,,D,,G,,]6- | %44
 [G,,,D,,G,,] z z G,, A,,!p!=B,, |{C,,} C,3 E, D,/C,/=B,,/D,/ | C,2 z _B,, C,D, | %47
{E,,} (E,3 G, F,/E,/D,/F,/) | E,2 z .D, .=E,.^F, | .G,.A, .B,.C .D!wedge![D,,D,] | %50
 !wedge![G,,,G,,][G,,D,]/[G,,D,]/ [G,,D,][G,,D,] [G,,D,][G,,D,] | %51
{^C,} [G,,D,][G,,D,]/[G,,D,]/ [G,,D,][G,,D,] [G,,D,][G,,D,] | %52
{^C,} [G,,D,][G,,D,]/[G,,D,]/ [G,,D,][G,,D,] [G,,D,][G,,D,] | %53
!p! [G,,D,G,][G,,D,G,]/[G,,D,G,]/ [G,,D,G,][G,,D,G,] [G,,D,G,][G,,D,G,] | %54
 [G,,D,G,][G,,D,G,]/[G,,D,G,]/ [G,,D,G,][G,,D,G,] [G,,D,G,][G,,D,G,] | %55
 [C,E,G,A,][C,E,G,A,]/[C,E,G,A,]/ [C,E,G,A,][C,E,G,A,] [C,E,G,A,][C,E,G,A,] | %56
 [G,,D,G,][G,,D,G,]/[G,,D,G,]/ [G,,D,G,][G,,D,G,] [G,,D,G,][G,,D,G,] | %57
 [G,,D,G,][G,,D,G,]/[G,,D,G,]/ [G,,D,G,][G,,D,G,] [G,,D,G,][G,,D,G,] | %58
 [G,,D,G,][G,,D,G,]/[G,,D,G,]/ [G,,D,G,][G,,D,G,] [G,,D,G,][G,,D,G,] | %59
 F,,[E,F,A,]/[E,F,A,]/ [E,F,A,][E,F,A,] B,,[D,F,B,] | %60
 F,,[E,F,A,]/[E,F,A,]/ [E,F,A,][E,F,A,] B,,[D,F,B,] | %61
 [C,E,G,A,][C,E,G,A,]/[C,E,G,A,]/ [D,G,B,][D,G,B,] [D,A,C][D,A,C] | %62
 [G,B,][G,,D,G,]/[G,,D,G,]/ [G,,D,G,][G,,D,G,] [G,,D,G,][G,,D,G,] | %63
 [G,,D,G,][G,,D,G,]/[G,,D,G,]/ [G,,D,G,][G,,D,G,] [G,,D,G,][G,,D,G,] | %64
 [G,,D,G,][G,,D,G,]/[G,,D,G,]/ [G,,D,G,][G,,D,G,] [G,,D,G,][G,,D,G,] | %65
 [G,,D,G,][G,,D,G,]/[G,,D,G,]/ [G,,D,G,][G,,D,G,] [G,,D,G,][G,,D,G,] | %66
 [G,,D,G,][G,,D,G,]/[G,,D,G,]/ [G,,D,G,][G,,D,G,] [G,,D,G,][G,,D,G,] | %67
 [C,E,G,A,][C,E,G,A,]/[C,E,G,A,]/ [C,E,G,A,][C,E,G,A,] [C,E,G,A,][C,E,G,A,] | %68
 [G,,D,G,][G,,D,G,]/[G,,D,G,]/ [G,,D,G,][G,,D,G,] [G,,D,G,][G,,D,G,] | %69
 [G,,D,G,][G,,D,G,]/[G,,D,G,]/ [G,,D,G,][G,,D,G,] [G,,D,G,][G,,D,G,] | %70
 [G,,D,G,][G,,D,G,]/[G,,D,G,]/ [G,,D,G,][G,,D,G,] [G,,D,G,][G,,D,G,] | %71
 F,,[E,F,A,]/[E,F,A,]/ [E,F,A,][E,F,A,] B,,[D,F,B,] | %72
 F,,[E,F,A,]/[E,F,A,]/ [E,F,A,][E,F,A,] B,,[D,F,B,] | %73
 [C,E,G,A,][C,E,G,A,]/[C,E,G,A,]/ [D,G,B,][D,G,B,] [D,A,C][D,A,C] | %74
 [G,B,][G,,D,G,]/[G,,D,G,]/ [G,,D,G,][G,,D,G,] [G,,D,G,][G,,D,G,] | %75
 [G,,D,G,][G,,D,G,]/[G,,D,G,]/ [G,,D,G,][G,,D,G,] [G,,D,G,][G,,D,G,] | %76
 [G,,D,G,][G,,D,]/[G,,D,]/ [G,,D,][G,,D,] [G,,D,][G,,D,] | %77
!pp! [G,,D,][G,,D,]/[G,,D,]/ [G,,D,][G,,D,] [G,,D,][G,,D,] | %78
 [G,,D,][G,,D,]/[G,,D,]/ [G,,D,][G,,D,] [G,,D,][G,,D,] | %79
 [G,,D,][G,,D,]/[G,,D,]/ [G,,D,][G,,D,] [G,,D,][G,,D,] | %80
 [G,,D,][G,,D,]/[G,,D,]/ [G,,D,][G,,D,] [G,,D,][G,,D,] | [G,,D,] z z2 z2 |{C,,} (C,2 A,G,) (G,2 | %83
 G,,) z z2 z2 |{C,,} (C,2 A,G,) G, z | [C,,C,][C,G,A,] [C,G,A,][C,G,A,] [C,G,A,][G,A,] | %86
 [D,G,=B,][D,G,B,] [D,G,B,][D,G,B,] [D,G,B,] z | %87
 [D,,D,][D,,D,]/[D,,D,]/ [D,,D,][D,,D,] [D,,D,][D,,D,] | [D,,D,] z z2 z2 | [G,,,D,,G,,]6- | %90
 [G,,,D,,G,,] z z!p! .G,, .A,,.=B,, |{C,,} C,3 E, D,/C,/=B,,/D,/ | C,2 z _B,, C,D, | %93
{E,,} (E,3 G, F,/E,/D,/F,/) | E,2 z!f! .D, .=E,.^F, | .G,.A, .B,.C .D!wedge![D,,D,] | %96
!ff!{/D,,} !wedge![G,,,G,,] z z2 z2 |] %97
V:4
 x6 | x6 | x6 | x6 | x6 | x6 | x6 | x6 | x6 | x6 | x6 | x6 | x6 | x6 | x6 | x6 | x6 | x6 | x6 | %19
 x6 | x6 | x6 | x6 | x6 | x6 | x6 | x6 | x6 | x6 | x6 | x6 | x6 | x6 | x6 | x6 | %35
 [F,=B,][F,B,]/[F,B,]/ [F,B,][F,B,] [F,B,][F,B,] | [=E,C] [E,C]/[E,C]/ [E,C][E,C] [E,C][E,C] | %37
 [F,=B,] [F,B,]/[F,B,]/ [F,B,][F,B,] F,F, | [=E,C] ([E,C]/[E,C]/ [E,C][E,C]) [E,C] x | x6 | x6 | %41
 x6 | x6 | x6 | x6 | x6 | x6 | x6 | x6 | x6 | x6 | x6 | x6 | x6 | x6 | x6 | x6 | x6 | x6 | x6 | %60
 x6 | x6 | x6 | x6 | x6 | x6 | x6 | x6 | x6 | x6 | x6 | x6 | x6 | x6 | x6 | x6 | x6 | x6 | x6 | %79
 x6 | x6 | [F,=B,] [F,B,]/[F,B,]/ [F,B,][F,B,] [F,B,][F,B,] | %82
 [=E,C][E,C]/[E,C]/ [E,C][E,C] [E,C][E,C] | [F,=B,][F,B,]/[F,B,]/ [F,B,][F,B,] F,F, | %84
 [=E,C]([E,C]/[E,C]/ [E,C][E,C]) [E,C] x | x6 | x6 | x6 | x6 | x6 | x6 | x6 | x6 | x6 | x6 | x6 | %96
 x6 |] %97

